Newaita-dark/apps/48/diffuse.svg

<svg height="48pt" viewBox="0 0 48 48" width="48pt" xmlns="http://www.w3.org/2000/svg" xmlns:xlink="http://www.w3.org/1999/xlink"><linearGradient id="a"><stop offset="0" stop-opacity=".313726"/><stop offset=".222222" stop-opacity=".27451"/><stop offset="1" stop-opacity="0"/></linearGradient><radialGradient id="b" cx="450.908936" cy="189.579361" gradientTransform="matrix(.00000026 -.117199 -.210958 -.00000015 63.311737 95.392999)" gradientUnits="userSpaceOnUse" r="21.166656" xlink:href="#a"/><radialGradient id="c" cx="450.908936" cy="189.579361" gradientTransform="matrix(-.00000026 .117199 .210958 .00000015 -15.682186 -11.291218)" gradientUnits="userSpaceOnUse" r="21.166656" xlink:href="#a"/><radialGradient id="d" cx="450.908936" cy="189.579361" gradientTransform="matrix(-.00000026 -.117199 .210958 -.00000015 -15.682186 95.392999)" gradientUnits="userSpaceOnUse" r="21.166656" xlink:href="#a"/><radialGradient id="e" cx="450.908936" cy="189.579361" gradientTransform="matrix(.00000026 .117199 -.210958 .00000015 63.311734 -11.291219)" gradientUnits="userSpaceOnUse" r="21.166656" xlink:href="#a"/><linearGradient id="f" gradientTransform="matrix(.0662976 -.0662976 .0662976 .0662976 5.527693 38.789081)" gradientUnits="userSpaceOnUse" x1="111.280739" x2="395.655518" y1="164.552521" y2="-119.822243"><stop offset="0" stop-color="#ffa726"/><stop offset="1" stop-color="#ffb74d"/></linearGradient><linearGradient id="g" gradientUnits="userSpaceOnUse" x1="23.81478309347" x2="23.814786" y1="43.04318274995" y2="3.35187325"><stop offset="0" stop-color="#424242"/><stop offset="1" stop-color="#616161"/></linearGradient><path d="m23.816406 42.050781h3.96875v-1.984375h-3.96875zm0 0" fill="url(#b)"/><path d="m23.816406 42.050781h-3.972656v1.984375h3.972656zm0 0" fill="url(#c)"/><path d="m23.816406 42.050781h-3.972656v-1.984375h3.972656zm0 0" fill="url(#d)"/><path d="m23.816406 42.050781h3.96875v1.984375h-3.96875zm0 0" fill="url(#e)"/><path d="m5.570312 21.992188 16.839844-16.839844c.777344-.773438 2.03125-.773438 2.808594 0l16.839844 16.839844c.773437.777343.773437 2.03125 0 2.808593l-16.839844 16.839844c-.777344.773437-2.03125.773437-2.808594 0l-16.839844-16.839844c-.773437-.777343-.773437-2.03125 0-2.808593zm0 0" fill="url(#f)"/><path d="m23.816406 4.300781c-.507812 0-1.015625.195313-1.40625.582031l-16.839844 16.839844c-.464843.46875-.652343 1.109375-.558593 1.710938.0625-.398438.25-.785156.558593-1.09375l16.839844-16.839844c.777344-.777344 2.03125-.777344 2.808594 0l16.839844 16.839844c.308594.308594.496094.695312.558594 1.09375.09375-.601563-.09375-1.242188-.558594-1.710938l-16.839844-16.839844c-.390625-.386718-.898438-.582031-1.402344-.582031zm0 0" fill="#fff" fill-opacity=".392157"/><path d="m23.816406 41.953125c-.507812 0-1.015625-.195313-1.40625-.585937l-16.839844-16.839844c-.464843-.464844-.652343-1.105469-.558593-1.710938.0625.402344.25.789063.558593 1.097656l16.839844 16.839844c.777344.777344 2.03125.777344 2.808594 0l16.839844-16.839844c.308594-.308593.496094-.695312.558594-1.097656.09375.605469-.09375 1.246094-.558594 1.710938l-16.839844 16.839844c-.390625.390624-.898438.585937-1.402344.585937zm0 0" fill-opacity=".235294"/><path d="m5.472656 21.625c-.832031.828125-.832031 2.175781 0 3.003906l16.839844 16.839844c.832031.832031 2.175781.832031 3.003906 0l16.839844-16.839844c.832031-.828125.832031-2.171875 0-3.003906l-16.839844-16.839844c-.828125-.832031-2.171875-.832031-3.003906 0zm.199219.199219 16.839844-16.839844c.722656-.726563 1.882812-.726563 2.605469 0l16.839843 16.839844c.726563.722656.726563 1.882812 0 2.605469l-16.839843 16.839843c-.722657.726563-1.882813.726563-2.605469 0l-16.839844-16.839843c-.722656-.722657-.726563-1.882813 0-2.605469zm0 0" fill="#212121"/><path d="m26.769531 12.75c-.828125.011719-1.488281.691406-1.476562 1.515625v5.960937l-6.039063 2.585938c-.550781.238281-.90625.777344-.90625 1.378906v7.9375c-.007812.539063.277344 1.039063.742188 1.3125.46875.269532 1.042968.269532 1.511718 0 .464844-.273437.75-.773437.742188-1.3125v-6.953125l3.949219-1.691406v8.644531c-.007813.539063.277343 1.042969.742187 1.316406.46875.273438 1.046875.273438 1.511719 0 .46875-.273437.75-.777343.742187-1.316406v-10.6875c.023438-.15625.023438-.3125 0-.46875v-6.707031c.007813-.402344-.152343-.792969-.4375-1.078125-.289062-.289062-.675781-.445312-1.082031-.4375zm0 0" fill="url(#g)"/><path d="m26.769531 12.75c-.828125.011719-1.488281.691406-1.476562 1.515625v.777344c-.011719-.828125.648437-1.507813 1.476562-1.519531.40625-.007813.792969.152343 1.082031.4375.285157.285156.445313.675781.4375 1.082031v-.777344c.007813-.402344-.152343-.792969-.4375-1.078125-.289062-.289062-.675781-.445312-1.082031-.4375zm-1.476562 7.476562-6.039063 2.585938c-.550781.238281-.90625.777344-.90625 1.378906v.773438c0-.597656.355469-1.140625.90625-1.378906l6.039063-2.585938zm2.996093.746094v.46875c.023438-.15625.023438-.3125 0-.46875zm0 0" fill="#fff" fill-opacity=".313726"/><path d="m28.289062 21.636719v.46875c.023438-.15625.023438-.316407 0-.46875zm-2.996093 1.898437-3.949219 1.691406v.613282l3.949219-1.691406zm-6.945313 8.640625v.617188c-.007812.539062.277344 1.039062.742188 1.3125.46875.269531 1.042968.269531 1.511718 0 .464844-.273438.75-.773438.742188-1.3125v-.617188c.007812.539063-.277344 1.042969-.742188 1.3125-.46875.273438-1.042968.273438-1.511718 0-.464844-.269531-.75-.773437-.742188-1.3125zm6.945313 0v.617188c-.007813.539062.277343 1.042969.742187 1.316406.46875.269531 1.046875.269531 1.511719 0 .46875-.273437.75-.777344.742187-1.316406v-.617188c.007813.542969-.273437 1.046875-.742187 1.316407-.464844.273437-1.042969.273437-1.511719 0-.464844-.269532-.75-.773438-.742187-1.316407zm0 0" fill-opacity=".235294"/><path d="m1079.109605 513.966694c-33.38264.472396-59.994274 27.871355-59.521878 61.096531v240.292026l-243.441332 104.24202c-22.202605 9.605382-36.531946 31.335591-36.531946 55.585246v319.969461c-.314931 21.730209 11.180035 41.885766 29.918404 52.908336 18.895834 10.865105 42.043231 10.865105 60.939066 0 18.738369-11.02257 30.233335-31.178127 29.918404-52.908336v-280.288209l159.197404-68.182469v348.470678c-.31493 21.730209 11.180036 42.043231 29.918405 53.065801 18.895834 11.02257 42.200696 11.02257 60.939065 0 18.895835-11.02257 30.233335-31.335592 29.918405-53.065801v-430.825023c.944791-6.298611.944791-12.597223 0-18.895834v-270.367896c.31493-16.218925-6.141147-31.965453-17.636112-43.460419-11.652432-11.652431-27.241495-17.951043-43.617885-17.636112zm0 0" fill="none" stroke="#212121" stroke-linecap="round" stroke-linejoin="round" stroke-width="11.338583" transform="scale(.0248071)"/></svg>

<?xml version="1.0" encoding="UTF-8"?>
<svg xmlns="http://www.w3.org/2000/svg" xmlns:xlink="http://www.w3.org/1999/xlink" width="48pt" height="48pt" viewBox="0 0 48 48" version="1.1">
<defs>
<radialGradient id="radial0" gradientUnits="userSpaceOnUse" cx="450.908936" cy="189.579361" fx="450.908936" fy="189.579361" r="21.166656" gradientTransform="matrix(0.000000261256,-0.117199,-0.210958,-0.000000152308,63.311737,95.392999)">
<stop offset="0" style="stop-color:rgb(0%,0%,0%);stop-opacity:0.313726;"/>
<stop offset="0.222222" style="stop-color:rgb(0%,0%,0%);stop-opacity:0.27451;"/>
<stop offset="1" style="stop-color:rgb(0%,0%,0%);stop-opacity:0;"/>
</radialGradient>
<radialGradient id="radial1" gradientUnits="userSpaceOnUse" cx="450.908936" cy="189.579361" fx="450.908936" fy="189.579361" r="21.166656" gradientTransform="matrix(-0.000000261256,0.117199,0.210958,0.000000152308,-15.682186,-11.291218)">
<stop offset="0" style="stop-color:rgb(0%,0%,0%);stop-opacity:0.313726;"/>
<stop offset="0.222222" style="stop-color:rgb(0%,0%,0%);stop-opacity:0.27451;"/>
<stop offset="1" style="stop-color:rgb(0%,0%,0%);stop-opacity:0;"/>
</radialGradient>
<radialGradient id="radial2" gradientUnits="userSpaceOnUse" cx="450.908936" cy="189.579361" fx="450.908936" fy="189.579361" r="21.166656" gradientTransform="matrix(-0.000000261256,-0.117199,0.210958,-0.000000152308,-15.682186,95.392999)">
<stop offset="0" style="stop-color:rgb(0%,0%,0%);stop-opacity:0.313726;"/>
<stop offset="0.222222" style="stop-color:rgb(0%,0%,0%);stop-opacity:0.27451;"/>
<stop offset="1" style="stop-color:rgb(0%,0%,0%);stop-opacity:0;"/>
</radialGradient>
<radialGradient id="radial3" gradientUnits="userSpaceOnUse" cx="450.908936" cy="189.579361" fx="450.908936" fy="189.579361" r="21.166656" gradientTransform="matrix(0.000000261256,0.117199,-0.210958,0.000000152308,63.311734,-11.291219)">
<stop offset="0" style="stop-color:rgb(0%,0%,0%);stop-opacity:0.313726;"/>
<stop offset="0.222222" style="stop-color:rgb(0%,0%,0%);stop-opacity:0.27451;"/>
<stop offset="1" style="stop-color:rgb(0%,0%,0%);stop-opacity:0;"/>
</radialGradient>
<linearGradient id="linear0" gradientUnits="userSpaceOnUse" x1="111.280739" y1="164.552521" x2="395.655518" y2="-119.822243" gradientTransform="matrix(0.0662976,-0.0662976,0.0662976,0.0662976,5.527693,38.789081)">
<stop offset="0" style="stop-color:rgb(100%,65.490198%,14.901961%);stop-opacity:1;"/>
<stop offset="1" style="stop-color:rgb(100%,71.764708%,30.19608%);stop-opacity:1;"/>
</linearGradient>
<linearGradient id="linear1" gradientUnits="userSpaceOnUse" x1="253.999969" y1="244.083328" x2="254" y2="-179.25" gradientTransform="matrix(0.093759,0,0,0.093759,0,20.158174)">
<stop offset="0" style="stop-color:rgb(25.882354%,25.882354%,25.882354%);stop-opacity:1;"/>
<stop offset="1" style="stop-color:rgb(38.039216%,38.039216%,38.039216%);stop-opacity:1;"/>
</linearGradient>
</defs>
<g id="surface1">
<path style=" stroke:none;fill-rule:nonzero;fill:url(#radial0);" d="M 23.816406 42.050781 L 27.785156 42.050781 L 27.785156 40.066406 L 23.816406 40.066406 Z M 23.816406 42.050781 "/>
<path style=" stroke:none;fill-rule:nonzero;fill:url(#radial1);" d="M 23.816406 42.050781 L 19.84375 42.050781 L 19.84375 44.035156 L 23.816406 44.035156 Z M 23.816406 42.050781 "/>
<path style=" stroke:none;fill-rule:nonzero;fill:url(#radial2);" d="M 23.816406 42.050781 L 19.84375 42.050781 L 19.84375 40.066406 L 23.816406 40.066406 Z M 23.816406 42.050781 "/>
<path style=" stroke:none;fill-rule:nonzero;fill:url(#radial3);" d="M 23.816406 42.050781 L 27.785156 42.050781 L 27.785156 44.035156 L 23.816406 44.035156 Z M 23.816406 42.050781 "/>
<path style=" stroke:none;fill-rule:nonzero;fill:url(#linear0);" d="M 5.570312 21.992188 L 22.410156 5.152344 C 23.1875 4.378906 24.441406 4.378906 25.21875 5.152344 L 42.058594 21.992188 C 42.832031 22.769531 42.832031 24.023438 42.058594 24.800781 L 25.21875 41.640625 C 24.441406 42.414062 23.1875 42.414062 22.410156 41.640625 L 5.570312 24.800781 C 4.796875 24.023438 4.796875 22.769531 5.570312 21.992188 Z M 5.570312 21.992188 "/>
<path style=" stroke:none;fill-rule:nonzero;fill:rgb(100%,100%,100%);fill-opacity:0.392157;" d="M 23.816406 4.300781 C 23.308594 4.300781 22.800781 4.496094 22.410156 4.882812 L 5.570312 21.722656 C 5.105469 22.191406 4.917969 22.832031 5.011719 23.433594 C 5.074219 23.035156 5.261719 22.648438 5.570312 22.339844 L 22.410156 5.5 C 23.1875 4.722656 24.441406 4.722656 25.21875 5.5 L 42.058594 22.339844 C 42.367188 22.648438 42.554688 23.035156 42.617188 23.433594 C 42.710938 22.832031 42.523438 22.191406 42.058594 21.722656 L 25.21875 4.882812 C 24.828125 4.496094 24.320312 4.300781 23.816406 4.300781 Z M 23.816406 4.300781 "/>
<path style=" stroke:none;fill-rule:nonzero;fill:rgb(0%,0%,0%);fill-opacity:0.235294;" d="M 23.816406 41.953125 C 23.308594 41.953125 22.800781 41.757812 22.410156 41.367188 L 5.570312 24.527344 C 5.105469 24.0625 4.917969 23.421875 5.011719 22.816406 C 5.074219 23.21875 5.261719 23.605469 5.570312 23.914062 L 22.410156 40.753906 C 23.1875 41.53125 24.441406 41.53125 25.21875 40.753906 L 42.058594 23.914062 C 42.367188 23.605469 42.554688 23.21875 42.617188 22.816406 C 42.710938 23.421875 42.523438 24.0625 42.058594 24.527344 L 25.21875 41.367188 C 24.828125 41.757812 24.320312 41.953125 23.816406 41.953125 Z M 23.816406 41.953125 "/>
<path style=" stroke:none;fill-rule:nonzero;fill:rgb(12.941177%,12.941177%,12.941177%);fill-opacity:1;" d="M 5.472656 21.625 C 4.640625 22.453125 4.640625 23.800781 5.472656 24.628906 L 22.3125 41.46875 C 23.144531 42.300781 24.488281 42.300781 25.316406 41.46875 L 42.15625 24.628906 C 42.988281 23.800781 42.988281 22.457031 42.15625 21.625 L 25.316406 4.785156 C 24.488281 3.953125 23.144531 3.953125 22.3125 4.785156 Z M 5.671875 21.824219 L 22.511719 4.984375 C 23.234375 4.257812 24.394531 4.257812 25.117188 4.984375 L 41.957031 21.824219 C 42.683594 22.546875 42.683594 23.707031 41.957031 24.429688 L 25.117188 41.269531 C 24.394531 41.996094 23.234375 41.996094 22.511719 41.269531 L 5.671875 24.429688 C 4.949219 23.707031 4.945312 22.546875 5.671875 21.824219 Z M 5.671875 21.824219 "/>
<path style=" stroke:none;fill-rule:nonzero;fill:url(#linear1);" d="M 26.769531 12.75 C 25.941406 12.761719 25.28125 13.441406 25.292969 14.265625 L 25.292969 20.226562 L 19.253906 22.8125 C 18.703125 23.050781 18.347656 23.589844 18.347656 24.191406 L 18.347656 32.128906 C 18.339844 32.667969 18.625 33.167969 19.089844 33.441406 C 19.558594 33.710938 20.132812 33.710938 20.601562 33.441406 C 21.066406 33.167969 21.351562 32.667969 21.34375 32.128906 L 21.34375 25.175781 L 25.292969 23.484375 L 25.292969 32.128906 C 25.285156 32.667969 25.570312 33.171875 26.035156 33.445312 C 26.503906 33.71875 27.082031 33.71875 27.546875 33.445312 C 28.015625 33.171875 28.296875 32.667969 28.289062 32.128906 L 28.289062 21.441406 C 28.3125 21.285156 28.3125 21.128906 28.289062 20.972656 L 28.289062 14.265625 C 28.296875 13.863281 28.136719 13.472656 27.851562 13.1875 C 27.5625 12.898438 27.175781 12.742188 26.769531 12.75 Z M 26.769531 12.75 "/>
<path style=" stroke:none;fill-rule:nonzero;fill:rgb(100%,100%,100%);fill-opacity:0.313726;" d="M 26.769531 12.75 C 25.941406 12.761719 25.28125 13.441406 25.292969 14.265625 L 25.292969 15.042969 C 25.28125 14.214844 25.941406 13.535156 26.769531 13.523438 C 27.175781 13.515625 27.5625 13.675781 27.851562 13.960938 C 28.136719 14.246094 28.296875 14.636719 28.289062 15.042969 L 28.289062 14.265625 C 28.296875 13.863281 28.136719 13.472656 27.851562 13.1875 C 27.5625 12.898438 27.175781 12.742188 26.769531 12.75 Z M 25.292969 20.226562 L 19.253906 22.8125 C 18.703125 23.050781 18.347656 23.589844 18.347656 24.191406 L 18.347656 24.964844 C 18.347656 24.367188 18.703125 23.824219 19.253906 23.585938 L 25.292969 21 Z M 28.289062 20.972656 L 28.289062 21.441406 C 28.3125 21.285156 28.3125 21.128906 28.289062 20.972656 Z M 28.289062 20.972656 "/>
<path style=" stroke:none;fill-rule:nonzero;fill:rgb(0%,0%,0%);fill-opacity:0.235294;" d="M 28.289062 21.636719 L 28.289062 22.105469 C 28.3125 21.949219 28.3125 21.789062 28.289062 21.636719 Z M 25.292969 23.535156 L 21.34375 25.226562 L 21.34375 25.839844 L 25.292969 24.148438 Z M 18.347656 32.175781 L 18.347656 32.792969 C 18.339844 33.332031 18.625 33.832031 19.089844 34.105469 C 19.558594 34.375 20.132812 34.375 20.601562 34.105469 C 21.066406 33.832031 21.351562 33.332031 21.34375 32.792969 L 21.34375 32.175781 C 21.351562 32.714844 21.066406 33.21875 20.601562 33.488281 C 20.132812 33.761719 19.558594 33.761719 19.089844 33.488281 C 18.625 33.21875 18.339844 32.714844 18.347656 32.175781 Z M 25.292969 32.175781 L 25.292969 32.792969 C 25.285156 33.332031 25.570312 33.835938 26.035156 34.109375 C 26.503906 34.378906 27.082031 34.378906 27.546875 34.109375 C 28.015625 33.835938 28.296875 33.332031 28.289062 32.792969 L 28.289062 32.175781 C 28.296875 32.71875 28.015625 33.222656 27.546875 33.492188 C 27.082031 33.765625 26.503906 33.765625 26.035156 33.492188 C 25.570312 33.222656 25.285156 32.71875 25.292969 32.175781 Z M 25.292969 32.175781 "/>
<path style="fill:none;stroke-width:11.338583;stroke-linecap:round;stroke-linejoin:round;stroke:rgb(12.941177%,12.941177%,12.941177%);stroke-opacity:1;stroke-miterlimit:4;" d="M 1079.109605 513.966694 C 1045.726965 514.43909 1019.115331 541.838049 1019.587727 575.063225 L 1019.587727 815.355251 L 776.146395 919.597271 C 753.94379 929.202653 739.614449 950.932862 739.614449 975.182517 L 739.614449 1295.151978 C 739.299518 1316.882187 750.794484 1337.037744 769.532853 1348.060314 C 788.428687 1358.925419 811.576084 1358.925419 830.471919 1348.060314 C 849.210288 1337.037744 860.705254 1316.882187 860.390323 1295.151978 L 860.390323 1014.863769 L 1019.587727 946.6813 L 1019.587727 1295.151978 C 1019.272797 1316.882187 1030.767763 1337.195209 1049.506132 1348.217779 C 1068.401966 1359.240349 1091.706828 1359.240349 1110.445197 1348.217779 C 1129.341032 1337.195209 1140.678532 1316.882187 1140.363602 1295.151978 L 1140.363602 864.326955 C 1141.308393 858.028344 1141.308393 851.729732 1140.363602 845.431121 L 1140.363602 575.063225 C 1140.678532 558.8443 1134.222455 543.097772 1122.72749 531.602806 C 1111.075058 519.950375 1095.485995 513.651763 1079.109605 513.966694 Z M 1079.109605 513.966694 " transform="matrix(0.0248071,0,0,0.0248071,0,0)"/>
</g>
</svg>
